logos/heap.svg

<?xml version="1.0" encoding="UTF-8"?>
<svg width="512px" height="198px" viewBox="0 0 512 198" version="1.1" xmlns="http://www.w3.org/2000/svg" preserveAspectRatio="xMidYMid">
    <title>Heap</title>
    <g>
        <g>
            <rect fill="#000000" x="-3.55271368e-15" y="42.7872256" width="22.9179401" height="112.297809"></rect>
            <rect fill="#000000" x="49.6684228" y="7.10542736e-15" width="22.9179401" height="85.5600904"></rect>
            <rect fill="#31D891" x="49.6684228" y="112.313584" width="22.9179401" height="85.5600904"></rect>
            <rect fill="#31D891" x="99.3132317" y="42.7872256" width="22.9179401" height="112.297809"></rect>
        </g>
        <path d="M251.638683,155.014084 L251.638683,105.144718 L194.332251,105.144718 L194.332251,155.014084 L178.815658,155.014084 L178.815658,42.7634534 L194.332251,42.7634534 L194.332251,90.7374978 L251.638683,90.7374978 L251.638683,42.7634534 L267.1632,42.7634534 L267.1632,155.014084 L251.638683,155.014084 Z M350.795907,133.317917 C346.522383,146.776075 334.325985,157.380949 316.610151,157.380949 C296.189763,157.380949 278.295941,142.50255 278.295941,116.696217 C278.295941,92.7892283 295.551569,76.4790066 314.707149,76.4790066 C338.143569,76.4790066 351.282194,92.6258701 351.282194,116.381082 C351.290249,117.969558 351.184797,119.556205 350.96658,121.128833 L293.633328,121.128833 C293.949073,134.742425 303.767634,144.261089 316.587598,144.261089 C328.935773,144.261089 335.112299,137.454903 337.960705,128.90054 L350.795907,133.317917 Z M335.742569,109.095793 C335.427434,98.1715162 328.305503,89.625077 314.851612,89.625077 C302.347393,89.625077 294.746359,99.2808892 294.108164,109.095793 L335.742569,109.095793 Z M381.749244,111.474849 L402.328723,108.469789 C406.924697,107.832205 408.189504,105.458025 408.189504,102.772367 C408.189504,95.3353004 403.282052,89.1587746 391.727505,89.1587746 C381.278065,89.1587746 375.417284,95.6504355 374.463345,104.519934 L360.219483,101.192424 C361.800035,86.625503 374.942448,76.5027788 391.408104,76.5027788 C414.198405,76.5027788 423.07156,89.4854911 423.07156,104.367547 L423.07156,142.507427 C423.022187,146.695005 423.338541,150.879536 424.017575,155.011645 L409.457969,155.011645 C408.875852,151.612819 408.610091,148.166448 408.66434,144.718249 C405.341097,150.107851 397.740064,157.385826 384.126472,157.385826 C368.610488,157.385826 358.631616,146.62125 358.631616,134.595524 C358.631616,120.974618 368.610488,113.373584 381.749244,111.474849 Z M408.189504,122.398516 L408.189504,118.91923 L384.912785,122.398516 C378.580825,123.352455 373.833075,126.987176 373.833075,133.793972 C373.833075,139.491395 378.580825,144.873691 386.181859,144.873691 C398.370943,144.881607 408.189504,139.020826 408.189504,122.398516 Z M437.110615,185.098817 L437.110615,78.8617204 L451.518445,78.8617204 L451.518445,90.7393264 C455.635926,83.1425593 464.660858,77.1220772 477.009034,77.1220772 C499.799335,77.1220772 512,94.6971061 512,116.860795 C512,139.502976 498.85393,157.074348 476.534197,157.074348 C464.816292,157.074348 455.954718,151.536016 451.845162,144.721906 L451.845162,185.098817 L437.110615,185.098817 Z M474.316061,90.2644904 C460.702469,90.2644904 451.677537,101.659336 451.677537,116.85287 C451.677537,132.525507 460.702469,143.768576 474.316061,143.768576 C488.093011,143.768576 496.799151,132.525507 496.799151,116.85287 C496.799151,101.659336 488.252712,90.2644904 474.316061,90.2644904 Z" fill="#000000"></path>
    </g>
</svg>

<svg preserveAspectRatio="xMidYMid" viewBox="0 0 512 198" xmlns="http://www.w3.org/2000/svg">
  <path d="M0 42.787h22.918v112.298H0z"/>
  <path d="M49.668 0h22.918v85.56H49.668z"/>
  <path fill="#31D891" d="M49.668 112.314h22.918v85.56H49.668z"/>
  <path fill="#31D891" d="M99.313 42.787h22.918v112.298H99.313z"/>
  <path d="M251.639 155.014v-49.87h-57.307v49.87h-15.516V42.764h15.516v47.973h57.307V42.763h15.524v112.251H251.64Zm99.157-21.696c-4.274 13.458-16.47 24.063-34.186 24.063-20.42 0-38.314-14.878-38.314-40.685 0-23.907 17.256-40.217 36.411-40.217 23.437 0 36.575 16.147 36.575 39.902a33.315 33.315 0 0 1-.315 4.748h-57.334c.316 13.613 10.135 23.132 22.955 23.132 12.348 0 18.524-6.806 21.373-15.36l12.835 4.417Zm-15.053-24.222c-.316-10.924-7.437-19.47-20.891-19.47-12.505 0-20.106 9.655-20.744 19.47h41.635Zm46.006 2.379 20.58-3.005c4.596-.638 5.86-3.012 5.86-5.698 0-7.437-4.907-13.613-16.461-13.613-10.45 0-16.31 6.491-17.265 15.36l-14.244-3.327c1.581-14.566 14.723-24.69 31.19-24.69 22.79 0 31.663 12.983 31.663 27.866v38.14a71.89 71.89 0 0 0 .946 12.504h-14.56a55.782 55.782 0 0 1-.794-10.294c-3.323 5.39-10.924 12.668-24.538 12.668-15.516 0-25.494-10.765-25.494-22.79 0-13.621 9.978-21.222 23.117-23.121Zm26.44 10.924v-3.48l-23.276 3.48c-6.332.953-11.08 4.588-11.08 11.395 0 5.697 4.748 11.08 12.349 11.08 12.189.008 22.008-5.853 22.008-22.475Zm28.922 62.7V78.862h14.407v11.877c4.118-7.596 13.143-13.617 25.491-13.617 22.79 0 34.991 17.575 34.991 39.739 0 22.642-13.146 40.213-35.466 40.213-11.718 0-20.58-5.538-24.689-12.352v40.377h-14.734Zm37.205-94.835c-13.614 0-22.638 11.395-22.638 26.589 0 15.673 9.024 26.916 22.638 26.916 13.777 0 22.483-11.243 22.483-26.916 0-15.194-8.546-26.589-22.483-26.589Z"/>
</svg>
